X: 113
T:Missa Rosina / Credo
N: Derived from Jos0904c-Missa_Rosina-Credo.krn
C: Josquin des Prez
%%abc-version 2.0
%%abcx-abcm2ps-target-version 5.9.1 (29 Sep 2008)
%%abc-creator hum2abc beta
%%abcx-conversion-date 2019/02/12 16:15:43
%%abc-edited-by Jesse Rodin
%%abc-edited-by Jesse Rodin (May 2013
%%abcx-initial-encoding-date 2013/05/10/
%%humdrum-veritas 1570762703
%%humdrum-veritas-data 2382661313
%%linebreak <none>
%%barnumbers 0
L: 1/4
M: 2/1
Q: 1/2=120
%%staves [1 2 3 4]
V: 1 clef=treble
V: 2 clef=treble-8
V: 3 clef=treble-8
V: 4 clef=bass
K: C
[V:1] z8 | 
[V:2] E6F2 | 
[V:3] z8 :
[V:4] z8 | 
[V:1] z8 | 
[V:2] G4G4 | 
[V:3] x8 :
[V:4] z8 | 
[V:1] E6F2 | 
[V:2] A4c4 | 
[V:3] x8 :
[V:4] z8 | 
[V:1] G4G4 | 
[V:2] B8 | 
[V:3] x8 :
[V:4] z4E,4 | 
[V:1] A4c4 | 
[V:2] A8 | 
[V:3] x8 :
[V:4] F,3G,A,2F,2 | 
[V:1] B8 | 
[V:2] z4G4 | 
[V:3] x8 :
[V:4] G,2E,3D,E,2 | 
[V:1] A8 | 
[V:2] c4d4 | 
[V:3] x8 :
[V:4] F,4D,4 | 
[V:1] z4G4 | 
[V:2] e6e2 | 
[V:3] x8 :
[V:4] C,3D,E,4 | 
[V:1] A2c4BA | 
[V:2] f2e4dc | 
[V:3] x8 | 
[V:4] z2A,,3B,,C,D, | 
[V:1] G2E2F2G2- | 
[V:2] B2c2A2G2 | 
[V:3] z8 :
[V:4] E,2C,2F,2E,2 | 
[V:1] GFE2D2C2 | 
[V:2] c4B2A2- | 
[V:3] x8 :
[V:4] C,4z2F,2- | 
[V:1] F2E4D2 | 
[V:2] A2G2F4 | 
[V:3] x8 :
[V:4] F,2C,2D,4 | 
[V:1] E4z2C2- | 
[V:2] E4z2A2- | 
[V:3] x8 :
[V:4] A,,4z2A,,2- | 
[V:1] C2D2E2F2 | 
[V:2] A2A2A2A2 | 
[V:3] x8 :
[V:4] A,,2D,2C,2F,2 | 
[V:1] G4A2A2 | 
[V:2] G2c4d2 | 
[V:3] x8 :
[V:4] E,2C,2F,2F,2 | 
[V:1] G4c4 | 
[V:2] e4c4 | 
[V:3] x8 :
[V:4] E,4A,4 | 
[V:1] B2A4GF | 
[V:2] d2f4ed | 
[V:3] x8 :
[V:4] G,2F,4G,2 | 
[V:1] E2A4^G2 | 
[V:2] c2d2B4 | 
[V:3] x8 | 
[V:4] A,2D,2E,4 | 
[V:1] A4z4 | 
[V:2] A8 | 
[V:3] E8- :
[V:4] A,,8 | 
[V:1] E3FG3A | 
[V:2] z4E3F | 
[V:3] E8- :
[V:4] z4z2A,,2 | 
[V:1] G3FE4 | 
[V:2] G2A2G3F | 
[V:3] E8- :
[V:4] E,2A,,2E,3D, | 
[V:1] z4G4 | 
[V:2] E4z2e2 | 
[V:3] E8- :
[V:4] C,2A,,2E,4 | 
[V:1] E2A4^G2 | 
[V:2] c2A2B4 | 
[V:3] E8- :
[V:4] A,,4E,4 | 
[V:1] A8 | 
[V:2] A6GF | 
[V:3] E8- :
[V:4] A,,8 | 
[V:1] z4B4 | 
[V:2] E8 | 
[V:3] E8- :
[V:4] z4z2E,2 | 
[V:1] c4B2G2- | 
[V:2] z4B4 | 
[V:3] E8- :
[V:4] C,3D,E,3D, | 
[V:1] G2A2B2G2- | 
[V:2] c4B2B2- | 
[V:3] E8 | 
[V:4] C,2B,,A,,G,,4 | 
[V:1] G2FED4 | 
[V:2] B2B2B4 | 
[V:3] G8- :
[V:4] G,,2G,,4G,,2 | 
[V:1] E4D2D2 | 
[V:2] G3ABcd2- | 
[V:3] G8- :
[V:4] C,4z4 | 
[V:1] D2D2D4 | 
[V:2] dcBAB2B2 | 
[V:3] G8 :
[V:4] G,,4G,,2G,,2 | 
[V:1] z4F4- | 
[V:2] A4z2d2- | 
[V:3] A8- :
[V:4] D,4z2D,2- | 
[V:1] F4F4 | 
[V:2] d2d2d4 | 
[V:3] A8- :
[V:4] D,2D,2D,4 | 
[V:1] E2F4ED | 
[V:2] z2D3EFG | 
[V:3] A8 :
[V:4] C,2D,4C,B,, | 
[V:1] C4c3B | 
[V:2] A4F4 | 
[V:3] c8- :
[V:4] A,,4A,3G, | 
[V:1] AGA4GF | 
[V:2] z4F4 | 
[V:3] c8- :
[V:4] F,E,F,4E,D, | 
[V:1] E2G4FE | 
[V:2] G2E4F2 | 
[V:3] c8 | 
[V:4] C,8 | 
[V:1] D4z2G2- | 
[V:2] G8 | 
[V:3] B8- :
[V:4] z4G,,4 | 
[V:1] G2FED2G2- | 
[V:2] z2G4FE | 
[V:3] B8- :
[V:4] G,,8- | 
[V:1] G2FED4- | 
[V:2] D2G4FE | 
[V:3] B8- :
[V:4] G,,4G,,4- | 
[V:1] D8 | 
[V:2] D2d4d2 | 
[V:3] B8- :
[V:4] G,,4z4 | 
[V:1] z8 | 
[V:2] d8 | 
[V:3] B8- :
[V:4] G,4G,2G,2 | 
[V:1] G6G2 | 
[V:2] d8 | 
[V:3] B8- :
[V:4] G,4G,4 | 
[V:1] G4G4 | 
[V:2] e8 | 
[V:3] B8- :
[V:4] E,6D,C, | 
[V:1] D8 | 
[V:2] z4d4- | 
[V:3] B8- :
[V:4] B,,8 | 
[V:1] z4G4 | 
[V:2] d4d4 | 
[V:3] B8 | 
[V:4] G,,8 | 
[V:1] F4E2F2- | 
[V:2] d2cde2d2 | 
[V:3] A8- :
[V:4] D,4C,2D,2- | 
[V:1] F2EDC2E2- | 
[V:2] A3Bc2A2- | 
[V:3] A8- :
[V:4] D,2C,B,,A,,2C,2- | 
[V:1] E2D4^C2 | 
[V:2] AGF2E4 | 
[V:3] A8- :
[V:4] C,2D,2A,,4 | 
[V:1] D4z4 | 
[V:2] D2F2E2F2- | 
[V:3] A8- :
[V:4] D,4C,2D,2- | 
[V:1] z8 | 
[V:2] F2EDC2E2- | 
[V:3] A8- :
[V:4] D,2C,B,,A,,2C,2 | 
[V:1] z4E4 | 
[V:2] E2D4^C2 | 
[V:3] A8- :
[V:4] D,4A,,4 | 
[V:1] F6F2 | 
[V:2] D4z2d2 | 
[V:3] A8- :
[V:4] D,8- | 
[V:1] F4F4 | 
[V:2] d2d2d2d2 | 
[V:3] A8- :
[V:4] D,8 | 
[V:1] E8 | 
[V:2] c8 | 
[V:3] A8 | 
[V:4] A,,8 | 
[V:1] z8 | 
[V:2] A4z2A2- | 
[V:3] [M:2/1]z8 :
[V:4] D,4C,2D,2- | 
[V:1] z8 | 
[V:2] A2G2A4 | 
[V:3] x8 :
[V:4] D,2E,2F,2D,2- | 
[V:1] z8 | 
[V:2] B2c2A4 | 
[V:3] x8 :
[V:4] D,2A,3G,F,2 | 
[V:1] z8 | 
[V:2] e3dc2B2- | 
[V:3] x8 :
[V:4] E,4F,2G,2- | 
[V:1] z4F4 | 
[V:2] B2c2d3c | 
[V:3] x8 :
[V:4] G,F,E,2D,4 | 
[V:1] G2A3GF2 | 
[V:2] B2A4B2 | 
[V:3] x8 :
[V:4] E,2F,3E,D,2 | 
[V:1] E4F2G2- | 
[V:2] c3BA2G2- | 
[V:3] x8 :
[V:4] C,4D,2E,2- | 
[V:1] GFE2D4 | 
[V:2] G2A2BAGF | 
[V:3] x8 :
[V:4] E,D,C,2B,,4 | 
[V:1] E2F2D4 | 
[V:2] E2A4^G2 | 
[V:3] x8 :
[V:4] C,2D,2B,,4 | 
[V:1] C8 | 
[V:2] A4G4- | 
[V:3] E8- :
[V:4] A,,3B,,C,4 | 
[V:1] z8 | 
[V:2] G4z2G2 | 
[V:3] E8- :
[V:4] z2G,2E,2G,2- | 
[V:1] z2G2E2G2- | 
[V:2] E2G3FED | 
[V:3] E8- :
[V:4] G,F,E,D,C,4 | 
[V:1] GFEDC4- | 
[V:2] C2c3de2 | 
[V:3] E8- :
[V:4] C,8 | 
[V:1] C4z4 | 
[V:2] c2e3dB2 | 
[V:3] E4G4- :
[V:4] z2C,3D,E,2 | 
[V:1] E4C2E2- | 
[V:2] c2B2e4 | 
[V:3] G8 :
[V:4] C,2E,3D,C,B,, | 
[V:1] EDCB,A,4 | 
[V:2] c2e3dcB | 
[V:3] A8- :
[V:4] A,,6A,,2- | 
[V:1] A2A2G2E2 | 
[V:2] A2F2G4 | 
[V:3] A4c4- :
[V:4] A,,2D,2E,2C,2 | 
[V:1] F4E3F | 
[V:2] A4z2G2- | 
[V:3] c8 :
[V:4] F,4C,3D, | 
[V:1] G3AB4 | 
[V:2] GAB3cd2 | 
[V:3] B8- :
[V:4] E,3F,G,2G,2 | 
[V:1] E4D2G2- | 
[V:2] G3AB2G2 | 
[V:3] B8- :
[V:4] E,3F,G,2E,2- | 
[V:1] G2A2B3c | 
[V:2] B3cd2G2 | 
[V:3] B8- :
[V:4] E,2D,C,B,,2E,2 | 
[V:1] d2B3A^G^F | 
[V:2] d4z4 | 
[V:3] B8- :
[V:4] D,2G,3F,E,D, | 
[V:1] ^G2G2A4- | 
[V:2] e4c3d | 
[V:3] B4A4- :
[V:4] E,4A,,4 | 
[V:1] A4E4 | 
[V:2] e4c4- | 
[V:3] A8- :
[V:4] z4A,,4 | 
[V:1] E4F4 | 
[V:2] c2c2d4 | 
[V:3] A8- :
[V:4] A,,4D,4 | 
[V:1] F4E2A2- | 
[V:2] d4e2c2 | 
[V:3] A8- :
[V:4] D,4A,,4 | 
[V:1] AGFEF2F2 | 
[V:2] d2cBA4 | 
[V:3] A8 :
[V:4] D,4D,4 | 
[V:1] G8 | 
[V:2] G4c4 | 
[V:3] [M:4/2]z8 :
[V:4] E,4z2C,2 | 
[V:1] z4c4 | 
[V:2] B4A4 | 
[V:3] x8 :
[V:4] G,4F,4 | 
[V:1] B4A4 | 
[V:2] G4A4 | 
[V:3] x8 :
[V:4] G,2E,2F,4 | 
[V:1] G4A4 | 
[V:2] B2c4BA | 
[V:3] x8 :
[V:4] E,2C,2F,4 | 
[V:1] B2c4BA | 
[V:2] G2A3Bcd | 
[V:3] x8 :
[V:4] E,2A,4G,F, | 
[V:1] G3ABcd2- | 
[V:2] e2dcB2G2 | 
[V:3] x8 :
[V:4] E,2F,2G,4- | 
[V:1] d2c4B2 | 
[V:2] B2c2d4 | 
[V:3] x8 :
[V:4] G,8 | 
[V:1] c6BA | 
[V:2] c6d2 | 
[V:3] G8 :
[V:4] C,8 | 
[V:1] G2A2E3F | 
[V:2] e2f2g4 | 
[V:3] c8 :
[V:4] C,4C,4- | 
[V:1] G2A4B2 | 
[V:2] z2e2d2B2 | 
[V:3] c4d4 :
[V:4] C,4z2G,2 | 
[V:1] G2c4BA | 
[V:2] c8 | 
[V:3] e8 :
[V:4] E,2A,4G,F, | 
[V:1] G8 | 
[V:2] c8 | 
[V:3] e8 :
[V:4] E,2C,2C,4 | 
[V:1] z4z2G2 | 
[V:2] B8 | 
[V:3] [M:2/1]z8 :
[V:4] z2G,2G,3F, | 
[V:1] G3FE3D | 
[V:2] z2B2c3B | 
[V:3] x8 :
[V:4] E,3D,C,4 | 
[V:1] C4z2F2 | 
[V:2] A3GF4 | 
[V:3] x8 :
[V:4] z2F,2F,3E, | 
[V:1] F2F2E4 | 
[V:2] z2A2c2BA | 
[V:3] x4G4 :
[V:4] D,4C,2E,2- | 
[V:1] z2G2A2B2 | 
[V:2] G3FE2D2 | 
[V:3] c4c2d2 :
[V:4] E,D,C,4B,,2 | 
[V:1] c3dB4 | 
[V:2] A4G4 | 
[V:3] e4e4 :
[V:4] A,,4E,4 | 
[V:1] z4A4 | 
[V:2] c8 | 
[V:3] [M:2/1]z8 :
[V:4] F,8 | 
[V:1] G8 | 
[V:2] B4e4- | 
[V:3] x8 :
[V:4] G,4E,4 | 
[V:1] c8 | 
[V:2] e4c4 | 
[V:3] x8 :
[V:4] A,8 | 
[V:1] B8 | 
[V:2] d8 | 
[V:3] x8 :
[V:4] G,8 | 
[V:1] A6B2 | 
[V:2] c4d4 | 
[V:3] x8 :
[V:4] A,4D,4 | 
[V:1] c4d4- | 
[V:2] c4B4 | 
[V:3] x8 :
[V:4] A,4G,4 | 
[V:1] d2c2c4- | 
[V:2] c8 | 
[V:3] x8 :
[V:4] F,4A,4 | 
[V:1] c4B4 | 
[V:2] d8 | 
[V:3] x8 :
[V:4] G,8 | 
[V:1] c8 | 
[V:2] c4z2c2 | 
[V:3] x8 :
[V:4] C,4F,4 | 
[V:1] z4A4 | 
[V:2] A2B2c2d2- | 
[V:3] x8 :
[V:4] F,2G,2A,2D,2 | 
[V:1] B2G2A2B2- | 
[V:2] d2e2c2d2 | 
[V:3] x8 :
[V:4] G,2E,2A,2G,2 | 
[V:1] BAA4^G2 | 
[V:2] A4B4 | 
[V:3] x8 :
[V:4] F,4E,4 | 
[V:1] A6GF | 
[V:2] A8 | 
[V:3] A8- :
[V:4] A,,4D,4 | 
[V:1] E2F4ED | 
[V:2] z4F3G | 
[V:3] A8- :
[V:4] C,2D,4C,B,, | 
[V:1] C2A,4D2- | 
[V:2] A2F4ED | 
[V:3] A8- :
[V:4] A,,2D,4C,B,, | 
[V:1] D2^C2D4 | 
[V:2] E4D4- | 
[V:3] A8- :
[V:4] A,,4D,3E, | 
[V:1] z4A,3B, | 
[V:2] D8 | 
[V:3] A8- :
[V:4] F,2D,2F,3G, | 
[V:1] C2A,2C3D | 
[V:2] z4A4 | 
[V:3] A8 :
[V:4] A,4A,,3B,, | 
[V:1] E2C2E3F | 
[V:2] G2A2G2E2 | 
[V:3] E8- :
[V:4] C,2A,,2C,3D, | 
[V:1] G2E2G3A | 
[V:2] B2c2B2G2- | 
[V:3] E8- :
[V:4] E,2C,2E,3F, | 
[V:1] B2E2z2E2- | 
[V:2] G2c2B2c2- | 
[V:3] E8 :
[V:4] G,2C,2z2C,2- | 
[V:1] EFG2C4 | 
[V:2] cBG2A4 | 
[V:3] C8- :
[V:4] C,D,E,2A,,4 | 
[V:1] z2E4DC | 
[V:2] G2c4BA | 
[V:3] C8- :
[V:4] z2A,,3B,,C,D, | 
[V:1] G4E3F | 
[V:2] G4C4 | 
[V:3] C8 :
[V:4] E,3F,G,4 | 
[V:1] G2A2G2c2- | 
[V:2] c4B2e2- | 
[V:3] [M:2/2]z8 :
[V:4] C,4z4 | 
[V:1] cBA4^G2 | 
[V:2] edc2B4 | 
[V:3] x8 :
[V:4] z4E,4 | 
[V:1] A3=GE2F2- | 
[V:2] A4z4 | 
[V:3] x8 :
[V:4] F,3E,C,2D,2- | 
[V:1] FEC2D4 | 
[V:2] z4B4 | 
[V:3] x8 :
[V:4] D,C,A,,2B,,4 | 
[V:1] E2G4F2- | 
[V:2] c4G2A2- | 
[V:3] x8 :
[V:4] A,,2z2z2D,2- | 
[V:1] F2E4D2 | 
[V:2] AGE2F4 | 
[V:3] x8 :
[V:4] D,2C,2D,4 | 
[V:1] E8- | 
[V:2] E8 | 
[V:3] A8- :
[V:4] A,,8- | 
[V:1] E8 | 
[V:2] z4e4 | 
[V:3] A8- :
[V:4] A,,8- | 
[V:1] z4E4 | 
[V:2] c4c4 | 
[V:3] A8 :
[V:4] A,,8 | 
[V:1] E4E4 | 
[V:2] c4B2c2- | 
[V:3] E8- :
[V:4] C,4z2C,2- | 
[V:1] E8- | 
[V:2] c2BAG2c2- | 
[V:3] E4C4- :
[V:4] C,D,E,F,G,4 | 
[V:1] E4z4 | 
[V:2] c2d2e4 | 
[V:3] C8 :
[V:4] E,2G,3F,E,D, | 
[V:1] G3FE2D2- | 
[V:2] c2d2B2A2- | 
[V:3] [M:3/1]z8 :
[V:4] C,2G,4F,2- | 
[V:1] D2C4B,2 | 
[V:2] A2G4F2 | 
[V:3] x8 :
[V:4] F,2E,2D,4 | 
[V:1] C2c2B2A2- | 
[V:2] G2A2B2c2 | 
[V:3] x8 :
[V:4] C,4z4 | 
[V:1] A2G2F4 | 
[V:2] F2G2A2B2 | 
[V:3] x8 :
[V:4] z4D,4 | 
[V:1] E6F2 | 
[V:2] c3B/A/G3A | 
[V:3] c8 :
[V:4] C,6B,,A,, | 
[V:1] G4F4- | 
[V:2] Bcd4cB | 
[V:3] B4A4- :
[V:4] G,,4D,4- | 
[V:1] F2E2E4- | 
[V:2] A2c6 | 
[V:3] A4G4 :
[V:4] D,2A,,2C,4 | 
[V:1] E2DCD4 | 
[V:2] A8 | 
[V:3] F8 :
[V:4] D,8 | 
[V:1] E8 | 
[V:2] z2c4BA | 
[V:3] E8- :
[V:4] A,,8 | 
[V:1] z4G4 | 
[V:2] B8 | 
[V:3] E8 :
[V:4] z8 | 
[V:1] E2A2G2F2- | 
[V:2] c4B2A2- | 
[V:3] [M:2/1]z8 :
[V:4] z4z2D,2- | 
[V:1] FEE4D2 | 
[V:2] A2G2F4 | 
[V:3] x8 :
[V:4] D,A,,C,2D,4 | 
[V:1] G2FED2C2 | 
[V:2] EFGAB2c2- | 
[V:3] c4B2A2- :
[V:4] C,4z4 | 
[V:1] F2E4D2 | 
[V:2] c2B4A2 | 
[V:3] A2G2F4 :
[V:4] z8 | 
[V:1] E8- | 
[V:2] B6G2- | 
[V:3] E8- :
[V:4] G,6E,2- | 
[V:1] E8- | 
[V:2] G2c4BA | 
[V:3] E8- :
[V:4] E,2A,,3B,,C,D, | 
[V:1] E8- | 
[V:2] G2A4^G2 | 
[V:3] E8- :
[V:4] E,2A,,2E,4 | 
[V:1] E8 |]  
[V:2] A8 |]  
[V:3] E8 |]  
[V:4] A,,8 |]  



